app/javascript/packs/images/search-icon.svg

<svg width="17px" height="18px" viewBox="0 0 17 18" version="1.1" xmlns="http://www.w3.org/2000/svg" xmlns:xlink="http://www.w3.org/1999/xlink">
    <!-- Generator: Sketch 48.2 (47327) - http://www.bohemiancoding.com/sketch -->
    <desc>Created with Sketch.</desc>
    <defs></defs>
    <g id="Page-1" stroke="none" stroke-width="1" fill="none" fill-rule="evenodd">
        <g id="Dashboard-Filter-Location-Expand" transform="translate(-665.000000, -294.000000)" fill="#DFB676">
            <g id="search-bar" transform="translate(305.000000, 286.000000)">
                <g id="Page-1" transform="translate(360.000000, 8.000000)">
                    <g id="Group-8">
                        <path d="M16.8817036,17.2458005 L11.5643431,11.4102002 C12.7623818,10.1493002 13.4209008,8.50050035 13.4209008,6.75000015 C13.4209008,4.94730031 12.7230142,3.2517 11.4551858,1.97730007 C10.1873573,0.70290014 8.50258756,0 6.71045019,0 C4.91831282,0 3.23264746,0.701999991 1.96571457,1.97730007 C0.69878167,3.25260014 0,4.94730031 0,6.75000015 C0,8.5527 0.697886794,10.2483007 1.96571457,11.5227002 C3.23354233,12.7970997 4.91831282,13.4999999 6.71045019,13.4999999 C8.25474874,13.4999999 9.71852127,12.9788994 10.904929,12.0194994 L16.2222905,17.8541994 C16.3108693,17.9513992 16.4307616,18 16.5524442,18 C16.6607064,18 16.7689686,17.9613006 16.8548612,17.8820995 C17.0373859,17.7137993 17.0490178,17.4293993 16.8825979,17.2467001 L16.8817036,17.2458005 Z M0.893832884,6.74999973 C0.893832884,3.52439955 3.50285581,0.899999592 6.70955639,0.899999592 C9.91625649,0.899999592 12.5252799,3.52439955 12.5252799,6.74999973 C12.5252799,9.97559945 9.91625649,12.5999999 6.70955639,12.5999999 C3.50285624,12.5999999 0.893832884,9.97559945 0.893832884,6.74999973 Z" id="Fill-2"></path>
                    </g>
                </g>
            </g>
        </g>
    </g>
</svg>

<svg width="17" height="18" xmlns="http://www.w3.org/2000/svg">
  <path d="M16.882 17.246l-5.318-5.836a6.724 6.724 0 0 0 1.857-4.66 6.723 6.723 0 0 0-1.966-4.773A6.65 6.65 0 0 0 6.71 0a6.644 6.644 0 0 0-4.744 1.977A6.729 6.729 0 0 0 0 6.75c0 1.803.698 3.498 1.966 4.773A6.65 6.65 0 0 0 6.71 13.5a6.634 6.634 0 0 0 4.195-1.48l5.317 5.834a.444.444 0 0 0 .633.028.452.452 0 0 0 .028-.635l-.001-.001zM.894 6.75C.894 3.524 3.503.9 6.71.9c3.206 0 5.815 2.624 5.815 5.85 0 3.226-2.609 5.85-5.815 5.85C3.503 12.6.894 9.976.894 6.75z" fill="#DFB676" fill-rule="evenodd"/>
</svg>
